brandFactory_export/3.Masa/Casa hogar_3Masa.svg

<?xml version="1.0" encoding="UTF-8"?>
<svg width="24px" height="24px" viewBox="0 0 24 24" version="1.1" xmlns="http://www.w3.org/2000/svg" xmlns:xlink="http://www.w3.org/1999/xlink">
    <title>3.Masa/Casa hogar_3Masa</title>
    <g id="Symbols" stroke="none" stroke-width="1" fill="none" fill-rule="evenodd">
        <g id="3.Masa/Casa-hogar_3Masa" fill="#5CB615" fill-rule="nonzero">
            <path d="M23.1159664,10.2655462 L13.2067227,0.527731092 C12.4907563,-0.174789916 11.1361345,-0.174789916 10.4168067,0.527731092 L0.507563025,10.2689076 C0.00672268908,10.7563025 -0.134453782,11.4487395 0.134453782,12.0705882 C0.423529412,12.7327731 1.11596639,13.1596639 1.89915966,13.1596639 L2.63193277,13.1596639 L2.63193277,21.8991597 C2.63193277,22.8504202 3.48235294,23.6235294 4.53109244,23.6235294 L8.26218487,23.6235294 C8.53781513,23.6302521 8.7697479,23.4084034 8.77310924,23.1327731 L8.77310924,18.2789916 L14.907563,18.2789916 L14.907563,23.1327731 C14.9109244,23.4084034 15.1394958,23.6302521 15.4184874,23.6269285 L18.9445378,23.6269285 C19.9932773,23.6269285 20.8436975,22.8537815 20.8436975,21.902521 L20.8436975,13.1630252 L21.7176471,13.1630252 C22.5008403,13.1630252 23.1966387,12.7361345 23.4823529,12.0739496 C23.7579832,11.4487395 23.6168067,10.7563025 23.1159664,10.2655462" id="Path"></path>
        </g>
    </g>
</svg>

<svg width="24" height="24" viewBox="0 0 24 24" xmlns="http://www.w3.org/2000/svg"><path d="M23.116 10.266L13.206.528c-.715-.703-2.07-.703-2.79 0l-9.908 9.74c-.501.488-.642 1.18-.374 1.803.29.662.982 1.089 1.765 1.089h.733v8.74c0 .95.85 1.724 1.9 1.724h3.73a.5.5 0 00.511-.491v-4.854h6.135v4.854a.503.503 0 00.51.494h3.527c1.048 0 1.899-.773 1.899-1.724v-8.74h.874c.783 0 1.479-.427 1.764-1.09.276-.624.135-1.317-.366-1.807" fill="#5CB615" fill-rule="nonzero"/></svg>
